X: 37488
T: Sligo Maid, The
R: reel
M: 4/4
K: Adorian
|:A2BA Bdef|gedB AGEF|G2BG DGBG|DEGA BddB|
A2BA Bdef|gedB AGEG|AB3 AEGE|DEGA B2AB:|
|:eaag a2ga|(3bag gf gedg|eggf g2ge|dega bgag|
eaag a2ga|(3bag gf gedg|egg2 edBc|dBgB BAA2:|
|:A2BA Bdeg|gedB AGEF|G3B AEE2|DEGA BddB|
A2BA Bdeg|gedB AGEG|AB3 AEGE|DEGA BAA2:|

